resources/haticons/SVG/wholensole.svg

<!-- Generated by IcoMoon.io -->
<svg version="1.1" xmlns="http://www.w3.org/2000/svg" width="24" height="24" viewBox="0 0 24 24">
<title>wholensole</title>
<path d="M12.975 5.475v-5.475c5.85 0.45 10.575 5.175 11.025 11.025h-5.475c-0.375-2.85-2.7-5.175-5.55-5.55zM14.625 1.95v2.1l1.575-1.425c0.075 0-0.525-0.6-1.575-0.675zM17.7 3.375l-1.425 1.425c0.6 0.3 0.9 0.825 0.9 0.825l1.575-1.425c-0.15-0.225-1.050-0.825-1.050-0.825zM22.050 9.375s-0.075-0.825-0.525-1.575l-1.575 1.575h2.1zM20.7 6.3s-0.525-0.825-0.9-1.050l-1.425 1.425s0.75 0.975 0.825 1.2l1.5-1.575zM12 18.6c1.725 0 3.375-0.675 4.575-1.8l4.050 3.6c-2.175 2.25-5.25 3.675-8.625 3.675-6.6-0.075-12-5.475-12-12.075 0-6.375 4.875-11.55 11.1-12v5.475c-3.225 0.45-5.7 3.225-5.7 6.525 0 3.6 3 6.6 6.6 6.6zM18.525 12.9h5.475c-0.15 2.25-0.975 4.275-2.175 6l-4.125-3.6c0.45-0.75 0.75-1.5 0.825-2.4zM21.525 16.5c0.15-0.225 0.675-1.875 0.675-1.875l-2.25-0.15c0 0.225-0.15 0.525-0.15 0.525l1.725 1.5z"></path>
</svg>

<svg xmlns="http://www.w3.org/2000/svg" width="24" height="24"><path d="M12.975 5.475V0C18.825.45 23.55 5.175 24 11.025h-5.475c-.375-2.85-2.7-5.175-5.55-5.55zm1.65-3.525v2.1L16.2 2.625c.075 0-.525-.6-1.575-.675zM17.7 3.375L16.275 4.8c.6.3.9.825.9.825L18.75 4.2c-.15-.225-1.05-.825-1.05-.825zm4.35 6s-.075-.825-.525-1.575L19.95 9.375h2.1zM20.7 6.3s-.525-.825-.9-1.05l-1.425 1.425s.75.975.825 1.2L20.7 6.3zM12 18.6a6.734 6.734 0 0 0 4.575-1.8l4.05 3.6A12.006 12.006 0 0 1 12 24.075C5.4 24 0 18.6 0 12 0 5.625 4.875.45 11.1 0v5.475C7.875 5.925 5.4 8.7 5.4 12c0 3.6 3 6.6 6.6 6.6zm6.525-5.7H24c-.15 2.25-.975 4.275-2.175 6L17.7 15.3c.45-.75.75-1.5.825-2.4zm3 3.6c.15-.225.675-1.875.675-1.875l-2.25-.15c0 .225-.15.525-.15.525l1.725 1.5z"/></svg>
